src/svg/reddit.svg

<?xml version="1.0" encoding="UTF-8"?>
<svg width="52px" height="52px" viewBox="0 0 52 52" version="1.1" xmlns="http://www.w3.org/2000/svg" xmlns:xlink="http://www.w3.org/1999/xlink">
    <!-- Generator: Sketch 47.1 (45422) - http://www.bohemiancoding.com/sketch -->
    <title>reddit</title>
    <desc>Created with Sketch.</desc>
    <defs></defs>
    <g id="Icons" stroke="none" stroke-width="1" fill="none" fill-rule="evenodd">
        <g id="reddit">
            <circle id="Oval" fill="#BDC3C7" cx="26" cy="26" r="26"></circle>
            <path d="M12.9814109,28.6517382 C12.9002473,29.0250909 12.8583127,29.4092655 12.8583127,29.7974982 C12.8583127,34.4549382 18.8130182,38.2506909 26.1339782,38.2506909 C33.4522327,38.2506909 39.4069382,34.4576436 39.4069382,29.7974982 C39.4069382,29.4268509 39.3677091,29.0589091 39.2960145,28.7031418 L39.2757236,28.6598545 C39.2473164,28.5854545 39.2364945,28.5110545 39.2364945,28.4366545 C38.8279709,26.8472 37.7254982,25.4051927 36.1306327,24.2391418 C36.06976,24.2174982 36.0115927,24.1863855 35.9601891,24.1444509 C35.9250182,24.1173964 35.8993164,24.0876364 35.8695564,24.0578764 C33.4454691,22.3886109 29.9770764,21.3416 26.1353309,21.3416 C22.3274036,21.3416 18.8928291,22.36832 16.4687418,24.0078255 C16.4498036,24.0321745 16.4295127,24.0524655 16.4024582,24.0741091 C16.3497018,24.1187491 16.2888291,24.1552727 16.2266036,24.1755636 C14.5952145,25.3416145 13.4643345,26.7957964 13.0422836,28.4001309 C13.0422836,28.4785891 13.0233455,28.5543418 12.9922327,28.6314473 L12.9814109,28.6517382 L12.9814109,28.6517382 Z M26.2016145,36.0119273 C23.7748218,36.0119273 22.0663273,35.4857164 20.9760291,34.3927127 C20.7420073,34.1573382 20.7420073,33.7745164 20.9760291,33.5377891 C21.2141091,33.3145891 21.5982836,33.3145891 21.8350109,33.5377891 C22.6872291,34.3886545 24.1143564,34.8134109 26.2016145,34.8134109 C28.28752,34.8134109 29.7065309,34.4075927 30.5560436,33.5567273 C30.7792436,33.33488 31.1647709,33.33488 31.4069091,33.5567273 C31.6301091,33.8002182 31.6301091,34.1857455 31.4069091,34.4292364 C30.3125527,35.52224 28.6135273,36.0498036 26.1826764,36.0498036 L26.2016145,36.0119273 L26.2016145,36.0119273 Z M21.32368,25.7677236 C20.0872873,25.7677236 19.0551564,26.80256 19.0551564,28.0362473 C19.0551564,29.2672291 20.0872873,30.2682473 21.32368,30.2682473 C22.5600727,30.2682473 23.5570327,29.2672291 23.5570327,28.0362473 C23.5570327,26.80256 22.5573673,25.7677236 21.32368,25.7677236 Z M31.1079564,25.7677236 C29.8715636,25.7677236 28.83808,26.80256 28.83808,28.0362473 C28.83808,29.2672291 29.8715636,30.2682473 31.1079564,30.2682473 C32.3443491,30.2682473 33.3413091,29.2672291 33.3413091,28.0362473 C33.3413091,26.80256 32.3416436,25.7677236 31.1079564,25.7677236 Z M37.26016,23.6101236 C38.6629382,24.7369455 39.6950691,26.07344 40.22128,27.5384436 C40.8300073,27.0839273 41.1938909,26.3696873 41.1938909,25.5783418 C41.1938909,24.2229091 40.0914182,23.1217891 38.7346327,23.1217891 C38.1948945,23.1217891 37.6822109,23.2962909 37.26016,23.6128291 L37.26016,23.6101236 L37.26016,23.6101236 Z M13.6672436,23.1244945 C12.3104582,23.1244945 11.2093382,24.22832 11.2093382,25.5837527 C11.2093382,26.3182836 11.53264,27.0014109 12.0804945,27.4626909 C12.6229382,26.0030982 13.6658909,24.6855418 15.07408,23.5722473 C14.6655564,23.2881745 14.1772218,23.1272 13.6685964,23.1272 L13.6685964,23.1244945 L13.6672436,23.1244945 Z M26.1353309,39.4640873 C18.1461236,39.4640873 11.6489745,35.1285964 11.6489745,29.8029091 C11.6489745,29.4309091 11.6800873,29.0670255 11.74096,28.7085527 C10.6682473,28.0416582 10,26.8661382 10,25.5783418 C10,23.5546618 11.6597964,21.9083927 13.6861818,21.9083927 C14.59792,21.9083927 15.4487855,22.2411636 16.1170327,22.8309527 C18.6276945,21.2198545 22.0108655,20.2053091 25.7376291,20.13632 L28.1887709,12.6638545 L28.7352727,12.7923636 C28.7352727,12.7923636 28.7569164,12.7923636 28.7569164,12.7950691 L34.4694836,14.1383273 C34.9348218,13.0588509 36.0088873,12.2986182 37.2628655,12.2986182 C38.9253673,12.2986182 40.2808,13.6567564 40.2808,15.3206109 C40.2808,16.9871709 38.9240145,18.3426036 37.2628655,18.3426036 C35.6017164,18.3426036 34.2462836,16.9844655 34.2462836,15.3260218 L29.0369309,14.0923345 L27.05248,20.1484945 C30.6372073,20.2905309 33.8796945,21.3037236 36.3105455,22.8823564 C36.9787927,22.2546909 37.8580655,21.9097455 38.7900945,21.9097455 C40.81648,21.9097455 42.4668073,23.5506036 42.4668073,25.5769891 C42.4668073,26.9121309 41.7363345,28.1282327 40.6027491,28.7761891 C40.6419782,29.1211345 40.68256,29.4444364 40.68256,29.7893818 C40.6622691,35.1164218 34.1813527,39.4519127 26.1813236,39.4519127 L26.1353309,39.4640873 L26.1353309,39.4640873 Z M37.1992873,13.5093091 C36.1982691,13.5093091 35.3866327,14.3195927 35.3866327,15.3192582 C35.3866327,16.3175709 36.1982691,17.1319127 37.1992873,17.1319127 C38.1894836,17.1319127 38.9984145,16.3202764 38.9984145,15.3273745 C38.9984145,14.3358255 38.1894836,13.5255418 37.1762909,13.5255418 L37.1992873,13.5093091 L37.1992873,13.5093091 Z" id="Shape" fill="#FFFFFF" fill-rule="nonzero"></path>
        </g>
    </g>
</svg>

<svg width="52" height="52" xmlns="http://www.w3.org/2000/svg"><path d="M26 52c14.36 0 26-11.64 26-26S40.36 0 26 0 0 11.64 0 26s11.64 26 26 26zM12.981 28.652a5.394 5.394 0 0 0-.123 1.145c0 4.658 5.955 8.454 13.276 8.454 7.318 0 13.273-3.793 13.273-8.454 0-.37-.04-.738-.111-1.094l-.02-.043a.617.617 0 0 1-.04-.223c-.408-1.59-1.51-3.032-3.105-4.198a.572.572 0 0 1-.17-.095c-.036-.027-.062-.056-.091-.086-2.425-1.67-5.893-2.716-9.735-2.716-3.808 0-7.242 1.026-9.666 2.666a.537.537 0 0 1-.242.168c-1.632 1.166-2.763 2.62-3.185 4.224a.614.614 0 0 1-.05.231l-.01.02zm13.22 7.36c-2.426 0-4.135-.526-5.225-1.62a.608.608 0 0 1 0-.854.635.635 0 0 1 .859 0c.852.85 2.28 1.275 4.367 1.275 2.086 0 3.505-.405 4.354-1.256.223-.222.609-.222.85 0a.652.652 0 0 1 0 .872c-1.093 1.093-2.792 1.62-5.223 1.62l.019-.037zm-4.877-10.244a2.292 2.292 0 0 0-2.269 2.268c0 1.231 1.032 2.232 2.269 2.232a2.232 2.232 0 0 0 2.233-2.232c0-1.233-1-2.268-2.233-2.268zm9.784 0c-1.236 0-2.27 1.035-2.27 2.268 0 1.231 1.034 2.232 2.27 2.232a2.232 2.232 0 0 0 2.233-2.232c0-1.233-1-2.268-2.233-2.268zm6.152-2.158c1.403 1.127 2.435 2.463 2.961 3.928a2.426 2.426 0 0 0 .973-1.96 2.46 2.46 0 0 0-3.934-1.965v-.003zm-23.593-.486a2.46 2.46 0 0 0-1.587 4.339c.543-1.46 1.586-2.777 2.994-3.89a2.463 2.463 0 0 0-1.405-.446v-.003h-.002zm12.468 16.34c-7.989 0-14.486-4.335-14.486-9.661 0-.372.031-.736.092-1.094A3.683 3.683 0 0 1 10 25.579c0-2.024 1.66-3.67 3.686-3.67.912 0 1.763.332 2.431.922 2.51-1.611 5.894-2.626 9.62-2.695l2.452-7.472.546.128s.022 0 .022.003l5.712 1.343a3.026 3.026 0 0 1 5.811 1.182 3.025 3.025 0 0 1-3.017 3.023 3.025 3.025 0 0 1-3.017-3.017l-5.21-1.234-1.984 6.056c3.585.143 6.828 1.156 9.259 2.734a3.602 3.602 0 0 1 2.48-.972 3.674 3.674 0 0 1 3.676 3.667c0 1.335-.73 2.551-1.864 3.2.039.344.08.667.08 1.012-.02 5.327-6.502 9.663-14.502 9.663l-.046.012zM37.2 13.51a1.811 1.811 0 1 0 0 3.623c.99 0 1.8-.812 1.8-1.805a1.81 1.81 0 0 0-1.823-1.801l.023-.017z" fill="#D8D8D8" fill-rule="evenodd"/></svg>
